X: 060114
T: Fleming's
T: John Brosnan's
S: Liz Carroll
Z: B.Black
R: reel
M: 4/4
L: 1/8
K: Ador
AG | EA A2 EA (3Bcd | egdB cBAG | EG G2 DGBG |\
DGBG dGBG |
EA A2 EA (3Bcd | egdB cBAG | e2 de ceBe | EAAG A2 :|
Bd | eA (3AAA eA (3Bcd | eaaf ge d2 | eA A2 eAge |\
d2 BG DG B2 |
eA (3AAA eA (3Bcd | e2 af gedB |e2 de ceBe|EAAG A2 :|
